image/ic_link.svg

<svg fill="none" height="50" viewBox="0 0 50 50" width="50" xmlns="http://www.w3.org/2000/svg"><path d="m33.1444 21.4665 5.187 5.1867c.8417.8305 1.5108 1.8192 1.9688 2.9093s.6958 2.26.6997 3.4423c.004 1.1824-.226 2.3539-.6766 3.447-.4507 1.0931-1.1132 2.0863-1.9493 2.9224-.8361.836-1.8293 1.4985-2.9225 1.9491-1.0932.4507-2.2647.6806-3.4471.6767-1.1824-.004-2.3524-.2418-3.4425-.6998-1.0902-.4579-2.0789-1.127-2.9094-1.9686l-1.7279-1.7279c-.2337-.2254-.4201-.4951-.5484-.7934-.1282-.2982-.1958-.619-.1988-.9436-.003-.3247.0587-.6467.1815-.9472.1228-.3006.3043-.5736.5337-.8033.2295-.2297.5024-.4114.8029-.5345.3004-.123.6224-.1851.947-.1824.3247.0027.6456.07.9439.198.2984.128.5683.3141.794.5475l1.7312 1.7295c.7655.7586 1.8003 1.183 2.878 1.1805 1.0778-.0025 2.1106-.4318 2.8726-1.1939.762-.7622 1.191-1.7951 1.1932-2.8728.0022-1.0776-.4226-2.1123-1.1814-2.8776l-5.187-5.1867c-.5606-.5609-1.2728-.946-2.049-1.1081-.7763-.1621-1.583-.0943-2.3213.1953-.263.1043-.5097.2108-.7401.3195l-.7564.3537c-1.0106.4564-1.7882.652-2.7776-.3358-1.4215-1.4214-1.0531-2.7336.6797-3.9284 1.7261-1.1877 3.8138-1.7333 5.9003-1.5421 2.0866.1911 4.0403 1.107 5.5218 2.5886zm-9.7969-9.7964 1.7279 1.7278c.4457.4609.6924 1.0784.6871 1.7195-.0052.6411-.2621 1.2545-.7152 1.708-.4532.4536-1.0663.711-1.7074.7169-.6412.0058-1.2589-.2403-1.7203-.6855l-1.7295-1.7278c-.3759-.3893-.8254-.6999-1.3226-.9136-.4971-.2137-1.0318-.3263-1.573-.3311-.5411-.0049-1.0777.0981-1.5786.3028-.5009.2048-.956.5072-1.3387.8897-.3828.3825-.6855.8374-.8906 1.3382-.205.5007-.3083 1.0373-.3037 1.5784.0045.5411.1168 1.0758.3302 1.5731.2135.4972.5238.947.9129 1.323l5.187 5.1867c.5606.5609 1.2728.946 2.049 1.1081.7763.1621 1.583.0943 2.3213-.1953.263-.1043.5097-.2108.7401-.3195l.7564-.3537c1.0106-.4564 1.7898-.652 2.7777.3358 1.4214 1.4214 1.053 2.7336-.6798 3.9284-1.7261 1.1877-3.8138 1.7333-5.9003 1.5422-2.0866-.1912-4.0403-1.1071-5.5218-2.5887l-5.187-5.1867c-.84171-.8305-1.51081-1.8192-1.96879-2.9093s-.6958-2.26-.69976-3.4423c-.00396-1.1824.22601-2.3539.67668-3.447.45066-1.0931 1.11312-2.0863 1.94927-2.9224.8361-.836 1.8293-1.4985 2.9225-1.94911 1.0932-.45064 2.2647-.6806 3.4471-.67664s2.3524.24177 3.4425.69972c1.0902.45793 2.0789 1.12863 2.9094 1.97033z" fill="#22201f"/></svg>

<svg width="50" height="50" viewBox="0 0 50 50" fill="none" xmlns="http://www.w3.org/2000/svg">
<path d="M33.1444 21.4665L38.3314 26.6532C39.1731 27.4837 39.8422 28.4724 40.3002 29.5625C40.7582 30.6526 40.996 31.8225 40.9999 33.0048C41.0039 34.1872 40.7739 35.3587 40.3233 36.4518C39.8726 37.5449 39.2101 38.5381 38.374 39.3742C37.5379 40.2102 36.5447 40.8727 35.4515 41.3233C34.3583 41.774 33.1868 42.0039 32.0044 42C30.822 41.996 29.652 41.7582 28.5619 41.3002C27.4717 40.8423 26.483 40.1732 25.6525 39.3316L23.9246 37.6037C23.6909 37.3783 23.5045 37.1086 23.3762 36.8103C23.248 36.5121 23.1804 36.1913 23.1774 35.8667C23.1744 35.542 23.2361 35.22 23.3589 34.9195C23.4817 34.6189 23.6632 34.3459 23.8926 34.1162C24.1221 33.8865 24.395 33.7048 24.6955 33.5817C24.9959 33.4587 25.3179 33.3966 25.6425 33.3993C25.9672 33.402 26.2881 33.4693 26.5864 33.5973C26.8848 33.7253 27.1547 33.9114 27.3804 34.1448L29.1116 35.8743C29.8771 36.6329 30.9119 37.0573 31.9896 37.0548C33.0674 37.0523 34.1002 36.623 34.8622 35.8609C35.6242 35.0987 36.0532 34.0658 36.0554 32.9881C36.0576 31.9105 35.6328 30.8758 34.874 30.1105L29.687 24.9238C29.1264 24.3629 28.4142 23.9778 27.638 23.8157C26.8617 23.6536 26.055 23.7214 25.3167 24.011C25.0537 24.1153 24.807 24.2218 24.5766 24.3305L23.8202 24.6842C22.8096 25.1406 22.032 25.3362 21.0426 24.3484C19.6211 22.927 19.9895 21.6148 21.7223 20.42C23.4484 19.2323 25.5361 18.6867 27.6226 18.8779C29.7092 19.069 31.6629 19.9849 33.1444 21.4665ZM23.3475 11.6701L25.0754 13.3979C25.5211 13.8588 25.7678 14.4763 25.7625 15.1174C25.7573 15.7585 25.5004 16.3719 25.0473 16.8254C24.5941 17.279 23.981 17.5364 23.3399 17.5423C22.6987 17.5481 22.081 17.302 21.6196 16.8568L19.8901 15.129C19.5142 14.7397 19.0647 14.4291 18.5675 14.2154C18.0704 14.0017 17.5357 13.8891 16.9945 13.8843C16.4534 13.8794 15.9168 13.9824 15.4159 14.1871C14.915 14.3919 14.4599 14.6943 14.0772 15.0768C13.6944 15.4593 13.3917 15.9142 13.1866 16.415C12.9816 16.9157 12.8783 17.4523 12.8829 17.9934C12.8874 18.5345 12.9997 19.0692 13.2131 19.5665C13.4266 20.0637 13.7369 20.5135 14.126 20.8895L19.313 26.0762C19.8736 26.6371 20.5858 27.0222 21.362 27.1843C22.1383 27.3464 22.945 27.2786 23.6833 26.989C23.9463 26.8847 24.193 26.7782 24.4234 26.6695L25.1798 26.3158C26.1904 25.8594 26.9696 25.6638 27.9575 26.6516C29.3789 28.073 29.0105 29.3852 27.2777 30.58C25.5516 31.7677 23.4639 32.3133 21.3774 32.1222C19.2908 31.931 17.3371 31.0151 15.8556 29.5335L10.6686 24.3468C9.82689 23.5163 9.15779 22.5276 8.69981 21.4375C8.24183 20.3474 8.00401 19.1775 8.00005 17.9952C7.99609 16.8128 8.22606 15.6413 8.67673 14.5482C9.12739 13.4551 9.78985 12.4619 10.626 11.6258C11.4621 10.7898 12.4553 10.1273 13.5485 9.67669C14.6417 9.22605 15.8132 8.99609 16.9956 9.00005C18.178 9.00401 19.348 9.24182 20.4381 9.69977C21.5283 10.1577 22.517 10.8284 23.3475 11.6701Z" fill="#22201F"/>
</svg>
